!!!OTL: Die Waldbraut.
!!!OTL-incipit: ES RITT EIN JAEGERSMANN WOHLGEMUTH
!!!COM: F. Silcher
!!!ARE: Europa, Mitteleuropa, Deutschland
!!!SCT: F0640
!!!TXL: @@DE
!!!YEM: Copyright 1995, estate of Helmut Schaffrath.
**kern	**text
*ICvox	*
*clefG2	*
*M6/8	*
*k[f#c#g#]	*
*A:	*
!LO:TX:a:t=Munter.	!
!LO:TX:a:t=P:only the highest voice encoded:problem	!
{8e	1._Es
=1	=1
4a	ritt
8cc#/	ein
(8cc#/	Jä-
8b/)	-gersmann
8a	.
=2	=2
4b/	wohl-
8g#	-ge-
4e}	-muth,
{8b/	drei
=3	=3
4b/	Fe-
8dd/	-dern
(>8dd/	trug
8cc#/)	er
8b/	an
=4	=4
4cc#/	ſei-
8b/	-nem
4a	Hut.
8r}	.
=5	=5
{4a	1._Hei-
8e	-ſa,
8f#	hop-
8f#	-ſa-
8e	-ſa!
=6	=6
16a	Valde-
16a	.
8a	-ri
8e	da,
16f#	valde-
16f#	.
8e}	-ra!
{8a	drei
=7	=7
4a	Fe-
8e	-dern
(>8cc#/	trug
8b/)	er
8a	an
=8	=8
4b/	ſei-
8cc#/	-nem
4a/}	Hut.
==	==
!!!AGN: Staende -, Jaeger - Lied, Liebe
!!!ONB: ESAC (Essen Associative Code) Database: FINK
!!!AMT: compound duple
!!!AIN: vox
!!!EED: Helmut Schaffrath
!!!EEV: 1.0
!!!RDF**kern: > = above
!!!GTL: Soldaten- und Jaegerlieder
!!Text: Volkslied
!!!source: Musikalischer Hausschatz der Deutschen. Eine Sammlung von über 1000 Liedern und Gesängen mit Singstimmen und Klavierbegleitung. Leipzig, Litterarisches Verlags-Haus.
!!!page: 422
!!!URL-scan: https://www.digitale-sammlungen.de/en/view/bsb11144622?page=389
!!!ENC: Anna Maria Matuszewska
!!!EEV: 2024/08/05
*-	*-
